component-icons/svg/application.svg

<?xml version="1.0" encoding="utf-8"?>
<!-- Generator: Adobe Illustrator 24.2.3, SVG Export Plug-In . SVG Version: 6.00 Build 0)  -->
<svg version="1.1" id="Layer_1" xmlns="http://www.w3.org/2000/svg" xmlns:xlink="http://www.w3.org/1999/xlink" x="0px" y="0px"
	 width="24px" height="24px" viewBox="0 0 24 24" enable-background="new 0 0 24 24" xml:space="preserve">
<path d="M2,24h4v-2H2V24z M16,0H8v2h8V0z M8,24h4v-2H8V24z M6,0H2v2h4V0z M2,20h12v4h8V4H2V20z M4,6h16v16h-4v-4H4V6z M18,0v2h4V0
	H18z M6,15h6l2-2H6V15z M18,9H6v2h10L18,9z"/>
</svg>

<svg id="Layer_1" data-name="Layer 1" xmlns="http://www.w3.org/2000/svg" viewBox="0 0 24 24">
  <defs>
    <style>
      .cls-1 {
        fill: gray;
      }
    </style>
  </defs>
  <title>application</title>
  <path class="cls-1" d="M2,24H6V22H2ZM16,0H8V2h8ZM8,24h4V22H8ZM6,0H2V2H6ZM2,20H14v4h8V4H2ZM4,6H20V22H16V18H4ZM18,0V2h4V0ZM6,15h6l2-2H6ZM18,9H6v2H16Z"/>
</svg>
